X: 199
T: Song of Sitting Bull (b)
C: Teton Sioux band 1911-1914
N: Derived from sioux194.krn
O: South Dakota, U.S.A.
N: Teton Sioux Music by Frances Densmore, 1918
Z: transcribed to **kern format by Craig Sapp
L: 1/8
M: 2/4
Q: 1/4=58
K: Db clef=bass
%%linebreak <none>
F F F/ F3/ [I:setbarnb 2]| 
F2C D- ||  
[M:3/4]D C C< B, B, B, ||  
[M:2/4]C C D/ D3/ | 
D> C C D- ||  
[M:3/4]D C C B, B,/ F,/ B,- | 
B, F, G, F,F,2 ||  
[M:2/4]B, B, D/ B,3/ | 
B,> F, F, B,- ||  
[M:3/4]B, F, F, F, F, F, ||  
[M:2/4]F,4 | 
F,4 ||  
[M:3/4]F,< C C< C C D ||  
[M:2/4]D< C C C | 
C< C C D- | 
D C C/ B,3/ | 
B,< B, F, B, ||  
[M:3/4]B,< F, G,< F, F, F, ||  
[M:2/4]B, B, D B,/ B,/ | 
B, B, F, B, ||  
[M:3/4]B,< F, G,< F, F, F, ||  
[M:2/4]F,4 | 
F,2z2 |]  



